X:82
T: Die untreue Braut, S. 51
N: L0042
O: Luxemburg
S: Die Luxemburger Volkslieder lterer Zeit, Luxemburg 1904 posth.]
R: Hochzeitslied]
M: 2/4
L: 1/16
K: Eb
EG | B3cB2AF | E3GF2
F2 | G2G2A2c2 | B4z2
EG | B3cB2AF | E3GF2
F2 | G2G2A2c2 | B4z2
GA | B2e2d2c2 | B3cB2
A2 | G2E2FGD2 | E4z2

@@@ Tune index: 8136
